_site/img/fa-external-link-alt.svg

<svg enable-background="new 0 0 612 612" viewBox="0 0 612 612" xmlns="http://www.w3.org/2000/svg"><path d="m516.4 382.5h-38.2c-10.6 0-19.1 8.6-19.1 19.1v133.9h-382.6v-382.5h172.1c10.6 0 19.1-8.6 19.1-19.1v-38.3c0-10.6-8.6-19.1-19.1-19.1h-191.2c-31.7 0-57.4 25.7-57.4 57.4v420.8c0 31.6 25.7 57.3 57.4 57.3h420.8c31.7 0 57.4-25.7 57.4-57.4v-153c-.1-10.5-8.7-19.1-19.2-19.1z"/><path d="m583.3 0h-153c-25.5 0-38.3 31-20.3 49l42.7 42.7-291.3 291.2c-11.2 11.2-11.3 29.3-.1 40.6 0 0 0 0 .1.1l27.1 27c11.2 11.2 29.3 11.3 40.6.1 0 0 0 0 .1-.1l291.2-291.3 42.6 42.7c17.9 17.9 49 5.4 49-20.3v-153c0-15.9-12.8-28.7-28.7-28.7z"/></svg>

<?xml version="1.0" encoding="utf-8"?>
<!-- Generator: Adobe Illustrator 26.0.3, SVG Export Plug-In . SVG Version: 6.00 Build 0)  -->
<svg version="1.1" id="Layer_1" xmlns="http://www.w3.org/2000/svg" xmlns:xlink="http://www.w3.org/1999/xlink" x="0px" y="0px"
	 viewBox="0 0 612 612" style="enable-background:new 0 0 612 612;" xml:space="preserve">
<g>
	<path d="M516.4,382.5h-38.2c-10.6,0-19.1,8.6-19.1,19.1v133.9H76.5V153h172.1c10.6,0,19.1-8.6,19.1-19.1V95.6
		c0-10.6-8.6-19.1-19.1-19.1H57.4C25.7,76.5,0,102.2,0,133.9v420.8C0,586.3,25.7,612,57.4,612l0,0h420.8c31.7,0,57.4-25.7,57.4-57.4
		l0,0v-153C535.5,391.1,526.9,382.5,516.4,382.5z"/>
	<path d="M583.3,0h-153C404.8,0,392,31,410,49l42.7,42.7L161.4,382.9c-11.2,11.2-11.3,29.3-0.1,40.6c0,0,0,0,0.1,0.1l27.1,27
		c11.2,11.2,29.3,11.3,40.6,0.1c0,0,0,0,0.1-0.1l291.2-291.3L563,202c17.9,17.9,49,5.4,49-20.3v-153C612,12.8,599.2,0,583.3,0z"/>
</g>
</svg>
